X: 11504
T: HOW HAPPY COULD I BE WITH EITHER.
T: From "The Beggar's Opera."
Q: "Moderate."
%R: air, jig
B: W. Hamilton "Universal Tune-Book" Vol. 1 Glasgow 1844 p.150 #4
S: http://imslp.org/wiki/Hamilton's_Universal_Tune-Book_(Various)
Z: 2016 John Chambers <jc:trillian.mit.edu>
N: The last 2 notes in bar 7 are drawn a bit smaller than the others, but not like grace notes..
M: 6/8
L: 1/8
K: G
% - - - - - - - - - - - - - - - - - - - - - - - - -
D |\
(G>A)G (G>F)E | (F<D)D (G>F)G |\
(A>G)A B2(B/c/) | (d>e)d (d>B)G |\
(A<F)D E>FG | (A>F)D G3 :|
Hd3 {ed^c}Hd3 e2f2 |\
(g>a)g (g>f)e | (f<d)d (g>f)g |\
(a>g)a b2(B/c/) | (d>e)d (d>B)G |\
(A<F)D (E>F)G | (AF)D G2 |]
% - - - - - - - - - - - - - - - - - - - - - - - - -

%%sep 1 1 500
%%sep 1 1 500

